static/logo.svg

<?xml version="1.0" encoding="UTF-8" standalone="no"?>
<!-- Created with Inkscape (http://www.inkscape.org/) -->
<svg
   xmlns:svg="http://www.w3.org/2000/svg"
   xmlns="http://www.w3.org/2000/svg"
   version="1.0"
   width="466"
   height="466"
   id="svg2">
  <defs
     id="defs4" />
  <g
     id="g1878">
    <path
       d="M 464.25991,232.70792 C 464.25991,359.73341 361.2854,462.70792 234.25991,462.70792 C 107.23442,462.70792 4.25991,359.73341 4.25991,232.70792 C 4.25991,105.68243 107.23442,2.70792 234.25991,2.70792 C 361.2854,2.70792 464.25991,105.68243 464.25991,232.70792 L 464.25991,232.70792 z "
       style="fill:white"
       id="path1366" />
    <path
       d="M 217.17036,463.60849 C 117.52316,458.41224 27.786532,380.7896 7.342412,283.34465 C -11.458788,201.9887 17.988072,111.96646 81.772102,57.928085 C 127.02669,18.567735 187.84467,-2.178305 247.75244,2.337125 C 342.62764,6.189105 429.49182,76.503925 455.04647,167.69849 C 465.52201,201.212 465.49258,237.19059 461.26209,271.70787 C 446.84632,359.60219 377.70997,435.51453 291.02764,456.75751 C 267.06004,462.64806 241.81256,465.71481 217.17036,463.60849 z M 181.67036,449.42398 C 139.39823,428.67406 113.26504,380.60359 119.25954,333.83362 C 124.04929,278.70063 174.20543,233.14044 229.33596,232.15417 C 275.492,233.57743 321.01195,204.87703 337.78122,161.56336 C 357.86092,114.20563 340.50486,54.765915 297.84394,25.843565 C 262.87444,0.064855 216.08548,5.532375 176.28582,14.492005 C 84.287812,37.040985 13.156312,123.20543 8.016672,217.71721 C 1.305842,303.00959 48.267052,389.10962 123.40784,429.93131 C 142.22473,440.09406 168.94571,451.97113 186.54943,452.21437 L 184.60224,451.02285 L 181.67037,449.42398 L 181.67036,449.42398 z "
       style="fill:black"
       id="path1351" />
  </g>
</svg>

<svg xmlns="http://www.w3.org/2000/svg" version="1.0" width="466" height="466"><path d="M464.26 232.708c0 127.025-102.975 230-230 230-127.026 0-230-102.975-230-230 0-127.026 102.974-230 230-230 127.025 0 230 102.974 230 230z" fill="#fff"/><path d="M217.17 463.608C117.523 458.412 27.787 380.79 7.342 283.345c-18.8-81.356 10.646-171.379 74.43-225.417 45.255-39.36 106.073-60.106 165.98-55.59 94.876 3.851 181.74 74.166 207.294 165.36 10.476 33.514 10.447 69.493 6.216 104.01-14.416 87.894-83.552 163.807-170.234 185.05-23.968 5.89-49.215 8.957-73.858 6.85zm-35.5-14.184c-42.272-20.75-68.405-68.82-62.41-115.59 4.79-55.133 54.945-100.694 110.076-101.68 46.156 1.423 91.676-27.277 108.445-70.59 20.08-47.358 2.724-106.798-39.937-135.72-34.97-25.78-81.759-20.312-121.558-11.352C84.288 37.041 13.156 123.205 8.016 217.717 1.307 303.01 48.268 389.11 123.409 429.931c18.817 10.163 45.538 22.04 63.141 22.283l-1.947-1.191-2.932-1.599z"/></svg>
